**kern	**kern	**dynam
*part1	*part1	*part1
*staff2	*staff1	*
*I"Piano	*	*
*clefF4	*clefG2	*
*k[]	*k[]	*
=1	=1	=1
4CC 4C	4G 4c 4e-X 4g	.
!	!LO:TX:b:i:t=cresc.	!
4CC 4C	4c 4e- 4g 4cc	.
4CC 4C	4c 4e- 4g 4cc	.
4CC 4C	4c 4e- 4g 4cc	.
=	=	=
4AAA-X 4AA-X	4c 4f#X 4cc	.
4AAA- 4AA-	4c 4f# 4cc	.
4AAA- 4AA-	4c 4f# 4cc	.
4AAA- 4AA-	4c 4f# 4cc	.
=	=	=
4GGG 4GG	4d 4g 4b	.
!	!	!LO:DY:a
4GGG 4GG	4G 4g	pp
4GGG 4GG	4G 4g	.
4GGG 4GG	4G 4g	.
=	=	=
!	!LO:TX:b:i:t=cresc.	!
4GG 4BB 4D 4Fn	4B 4d 4fn 4g	pp
4GG 4BB 4D 4F	4B 4d 4f 4g	.
4GG 4BB 4D 4F	4B 4d 4f 4g	.
4GG 4BB 4D 4F	4B 4d 4f 4g	.
=	=	=
2CC 2C	2c 2cc	f
2GG 2G	2g	.
=	=	=
2EE 2E	2e	.
4CC 4C	4c	.
4C 4G	4g 4ee	.
=	=	=
(2C 2G	(2g 2ee	sf
4BB 4G	4f 4dd	>
4C) 4G	4e) 4cc	.
=	=	=
2GG; 2G	2e; 2cc	] p
4GG; 4G	4d; 4b	.
4GG 4G	4g	f
=	=	=
*-	*-	*-
!!!system-decoration: {(s1,s2)}
